src/assets/card/mid-empty.svg

<svg width="100" height="130" viewBox="0 0 100 130" fill="none" xmlns="http://www.w3.org/2000/svg">
<g id="mid-empty">
<g id="Rectangle 213" filter="url(#filter0_b_965_14691)">
<mask id="path-1-inside-1_965_14691" fill="white">
<path d="M12 4H88V130H12V4Z"/>
</mask>
<path d="M12 4H88V130H12V4Z" fill="url(#paint0_linear_965_14691)" fill-opacity="0.2"/>
<path d="M12 4V3.34148H11.3415V4H12ZM88 4H88.6585V3.34148H88V4ZM12 4.65852H88V3.34148H12V4.65852ZM87.3415 4V130H88.6585V4H87.3415ZM12.6585 130V4H11.3415V130H12.6585Z" fill="url(#paint1_linear_965_14691)" mask="url(#path-1-inside-1_965_14691)"/>
</g>
<rect id="Rectangle 214" x="12" y="4.00009" width="76" height="3" fill="url(#paint2_linear_965_14691)"/>
<g id="Group 221">
<path id="Vector 145" d="M100 101L76.0491 130H80.0002L100 104.951V101Z" fill="url(#paint3_linear_965_14691)"/>
<path id="Vector 146" d="M99 109.178L82 130H84.8222L99 112V109.178Z" fill="url(#paint4_linear_965_14691)"/>
<path id="Vector 149 (Stroke)" fill-rule="evenodd" clip-rule="evenodd" d="M91 107V10H91.5V107L73.5 130H73L91 107Z" fill="url(#paint5_linear_965_14691)"/>
<path id="Vector 150 (Stroke)" opacity="0.5" fill-rule="evenodd" clip-rule="evenodd" d="M93.8354 19.0682L84.8836 10.1164L85.1164 9.88358L94.1646 18.9318V105H93.8354V19.0682Z" fill="url(#paint6_linear_965_14691)"/>
<path id="Vector 153" opacity="0.3" d="M100 4H91V9H95V22H100V4Z" fill="url(#paint7_linear_965_14691)"/>
</g>
<g id="Group 222">
<path id="Vector 145_2" d="M0 101L23.9509 130H19.9998L0 104.951V101Z" fill="url(#paint8_linear_965_14691)"/>
<path id="Vector 146_2" d="M1 109.178L18 130H15.1778L1 112V109.178Z" fill="url(#paint9_linear_965_14691)"/>
<path id="Vector 149 (Stroke)_2" fill-rule="evenodd" clip-rule="evenodd" d="M9 107V10H8.5V107L26.5 130H27L9 107Z" fill="url(#paint10_linear_965_14691)"/>
<path id="Vector 150 (Stroke)_2" opacity="0.5" fill-rule="evenodd" clip-rule="evenodd" d="M6.16461 19.0682L15.1164 10.1164L14.8836 9.88358L5.83535 18.9318V105H6.16461V19.0682Z" fill="url(#paint11_linear_965_14691)"/>
<path id="Vector 153_2" opacity="0.3" d="M0 4H9V9H5V22H0V4Z" fill="url(#paint12_linear_965_14691)"/>
</g>
<g id="diamond">
<path id="Polygon 38" d="M50 0L53 6L50 10L47 6L50 0Z" fill="#AB750F"/>
<path id="Vector 108" d="M47 6L50 0V10L47 6Z" fill="#FFC502"/>
<path id="highlight" d="M49.9621 1.27928L53 5.99994L50 3.19481e-05C48.8284 2.34314 48.1716 3.65683 47 5.99994L49.9621 1.27928Z" fill="white" fill-opacity="0.3"/>
</g>
<g id="icon-mid">
<g id="Mid" clip-path="url(#clip0_965_14691)">
<path id="Union" fill-rule="evenodd" clip-rule="evenodd" d="M48.8161 100H44.8961L44.0001 100.896V104.704L45.3441 103.36V101.344H47.4721L48.8161 100ZM50.3841 111.2H54.3041L55.2001 110.304V106.496L53.8561 107.84V109.856H51.7281L50.3841 111.2ZM55.2001 102.464V100H52.8481L44.0001 108.736V111.2H46.3521L55.2001 102.464Z" fill="url(#paint13_linear_965_14691)"/>
</g>
<path id="MID" d="M45.828 116V113.312H46.2389L47.4139 115.274H47.1989L48.3547 113.312H48.7656L48.7695 116H48.2971L48.2933 114.053H48.3931L47.4101 115.693H47.1874L46.189 114.053H46.3042V116H45.828ZM49.4955 116V113.312H49.9947V116H49.4955ZM50.7218 116V113.312H51.8968C52.1886 113.312 52.4446 113.368 52.6648 113.481C52.885 113.594 53.0565 113.75 53.1794 113.949C53.3022 114.149 53.3637 114.385 53.3637 114.656C53.3637 114.925 53.3022 115.16 53.1794 115.363C53.0565 115.562 52.885 115.718 52.6648 115.831C52.4446 115.944 52.1886 116 51.8968 116H50.7218ZM51.221 115.578H51.8738C52.076 115.578 52.2501 115.539 52.396 115.462C52.5445 115.386 52.6584 115.278 52.7378 115.14C52.8197 115.002 52.8606 114.84 52.8606 114.656C52.8606 114.469 52.8197 114.308 52.7378 114.172C52.6584 114.034 52.5445 113.926 52.396 113.85C52.2501 113.773 52.076 113.734 51.8738 113.734H51.221V115.578Z" fill="url(#paint14_linear_965_14691)"/>
</g>
<g id="add" clip-path="url(#clip1_965_14691)">
<g id="Group 332">
<rect id="Rectangle 414" x="36.4001" y="70.6675" width="27.2" height="27.2" rx="13.6" transform="rotate(-90 36.4001 70.6675)" fill="url(#paint15_linear_965_14691)"/>
<path id="Rectangle 416 (Stroke)" fill-rule="evenodd" clip-rule="evenodd" d="M49.9263 72.1263C58.321 72.1263 65.1263 65.321 65.1263 56.9263C65.1263 48.5315 58.321 41.7263 49.9263 41.7263C41.5315 41.7263 34.7263 48.5315 34.7263 56.9263C34.7263 65.321 41.5315 72.1263 49.9263 72.1263ZM33.9263 56.9263C33.9263 65.7628 41.0897 72.9263 49.9263 72.9263C58.7628 72.9263 65.9263 65.7628 65.9263 56.9263C65.9263 48.0897 58.7628 40.9263 49.9263 40.9263C41.0897 40.9263 33.9263 48.0897 33.9263 56.9263Z" fill="url(#paint16_linear_965_14691)"/>
<g id="Group 264">
<path id="Union_2" fill-rule="evenodd" clip-rule="evenodd" d="M50 49.8C51.193 49.8 52.16 50.7671 52.16 51.96V54.84H55.04C56.233 54.84 57.2 55.8071 57.2 57C57.2 58.193 56.233 59.16 55.04 59.16H52.16V62.04C52.16 63.233 51.193 64.2 50 64.2C48.8071 64.2 47.84 63.233 47.84 62.04V59.16H44.96C43.7671 59.16 42.8 58.193 42.8 57C42.8 55.8071 43.7671 54.84 44.96 54.84H47.84V51.96C47.84 50.7671 48.8071 49.8 50 49.8Z" fill="#F5F1EE"/>
</g>
</g>
</g>
</g>
<defs>
<filter id="filter0_b_965_14691" x="7.45139" y="-0.548611" width="85.0972" height="135.097" filterUnits="userSpaceOnUse" color-interpolation-filters="sRGB">
<feFlood flood-opacity="0" result="BackgroundImageFix"/>
<feGaussianBlur in="BackgroundImageFix" stdDeviation="2.27431"/>
<feComposite in2="SourceAlpha" operator="in" result="effect1_backgroundBlur_965_14691"/>
<feBlend mode="normal" in="SourceGraphic" in2="effect1_backgroundBlur_965_14691" result="shape"/>
</filter>
<linearGradient id="paint0_linear_965_14691" x1="50" y1="4" x2="50" y2="130" gradientUnits="userSpaceOnUse">
<stop stop-color="#AB750F"/>
<stop offset="1" stop-color="#997601" stop-opacity="0"/>
</linearGradient>
<linearGradient id="paint1_linear_965_14691" x1="50" y1="4" x2="50" y2="142.866" gradientUnits="userSpaceOnUse">
<stop stop-color="#D1A14A"/>
<stop offset="1" stop-color="#D1A14A" stop-opacity="0"/>
</linearGradient>
<linearGradient id="paint2_linear_965_14691" x1="8.44715" y1="5.5001" x2="89.3902" y2="5.50013" gradientUnits="userSpaceOnUse">
<stop stop-color="#AB750F"/>
<stop offset="0.516" stop-color="#D8A956"/>
<stop offset="1" stop-color="#AB750F"/>
</linearGradient>
<linearGradient id="paint3_linear_965_14691" x1="74.9294" y1="115.5" x2="100.438" y2="115.5" gradientUnits="userSpaceOnUse">
<stop stop-color="#AB750F"/>
<stop offset="0.516" stop-color="#D8A956"/>
<stop offset="1" stop-color="#AB750F"/>
</linearGradient>
<linearGradient id="paint4_linear_965_14691" x1="81.2053" y1="119.589" x2="99.311" y2="119.589" gradientUnits="userSpaceOnUse">
<stop stop-color="#AB750F"/>
<stop offset="0.516" stop-color="#D8A956"/>
<stop offset="1" stop-color="#AB750F"/>
</linearGradient>
<linearGradient id="paint5_linear_965_14691" x1="72.1352" y1="70.0005" x2="91.8384" y2="70.0005" gradientUnits="userSpaceOnUse">
<stop stop-color="#AB750F"/>
<stop offset="0.516" stop-color="#D8A956"/>
<stop offset="1" stop-color="#AB750F"/>
</linearGradient>
<linearGradient id="paint6_linear_965_14691" x1="89.5241" y1="9.88358" x2="89.5241" y2="105" gradientUnits="userSpaceOnUse">
<stop stop-color="#AB750F"/>
<stop offset="0.516" stop-color="#D8A956"/>
<stop offset="1" stop-color="#AB750F"/>
</linearGradient>
<linearGradient id="paint7_linear_965_14691" x1="95.5" y1="4" x2="95.5" y2="22" gradientUnits="userSpaceOnUse">
<stop stop-color="#AB750F"/>
<stop offset="0.516" stop-color="#D8A956"/>
<stop offset="1" stop-color="#AB750F"/>
</linearGradient>
<linearGradient id="paint8_linear_965_14691" x1="25.0706" y1="115.5" x2="-0.438125" y2="115.5" gradientUnits="userSpaceOnUse">
<stop stop-color="#AB750F"/>
<stop offset="0.516" stop-color="#D8A956"/>
<stop offset="1" stop-color="#AB750F"/>
</linearGradient>
<linearGradient id="paint9_linear_965_14691" x1="18.7947" y1="119.589" x2="0.689025" y2="119.589" gradientUnits="userSpaceOnUse">
<stop stop-color="#AB750F"/>
<stop offset="0.516" stop-color="#D8A956"/>
<stop offset="1" stop-color="#AB750F"/>
</linearGradient>
<linearGradient id="paint10_linear_965_14691" x1="27.8648" y1="70.0005" x2="8.16159" y2="70.0005" gradientUnits="userSpaceOnUse">
<stop stop-color="#AB750F"/>
<stop offset="0.516" stop-color="#D8A956"/>
<stop offset="1" stop-color="#AB750F"/>
</linearGradient>
<linearGradient id="paint11_linear_965_14691" x1="10.4759" y1="9.88358" x2="10.4759" y2="105" gradientUnits="userSpaceOnUse">
<stop stop-color="#AB750F"/>
<stop offset="0.516" stop-color="#D8A956"/>
<stop offset="1" stop-color="#AB750F"/>
</linearGradient>
<linearGradient id="paint12_linear_965_14691" x1="4.5" y1="4" x2="4.5" y2="22" gradientUnits="userSpaceOnUse">
<stop stop-color="#AB750F"/>
<stop offset="0.516" stop-color="#D8A956"/>
<stop offset="1" stop-color="#AB750F"/>
</linearGradient>
<linearGradient id="paint13_linear_965_14691" x1="43.4765" y1="105.6" x2="55.405" y2="105.6" gradientUnits="userSpaceOnUse">
<stop stop-color="#AB750F"/>
<stop offset="0.516" stop-color="#D8A956"/>
<stop offset="1" stop-color="#AB750F"/>
</linearGradient>
<linearGradient id="paint14_linear_965_14691" x1="44.5795" y1="114.5" x2="54.1648" y2="114.5" gradientUnits="userSpaceOnUse">
<stop stop-color="#AB750F"/>
<stop offset="0.516" stop-color="#D8A956"/>
<stop offset="1" stop-color="#AB750F"/>
</linearGradient>
<linearGradient id="paint15_linear_965_14691" x1="69.5638" y1="81.2186" x2="35.4913" y2="81.5663" gradientUnits="userSpaceOnUse">
<stop stop-color="#AB750F"/>
<stop offset="0.237787" stop-color="#D8A956"/>
<stop offset="1" stop-color="#AB750F"/>
</linearGradient>
<linearGradient id="paint16_linear_965_14691" x1="49.9264" y1="74.4222" x2="49.9264" y2="40.3409" gradientUnits="userSpaceOnUse">
<stop stop-color="#AB750F"/>
<stop offset="0.516" stop-color="#D8A956"/>
<stop offset="1" stop-color="#AB750F"/>
</linearGradient>
<clipPath id="clip0_965_14691">
<rect width="11.2" height="11.2" fill="white" transform="translate(44.0001 100)"/>
</clipPath>
<clipPath id="clip1_965_14691">
<rect width="32" height="32" fill="white" transform="translate(34 41)"/>
</clipPath>
</defs>
</svg>

<svg xmlns="http://www.w3.org/2000/svg" width="100" height="130" fill="none" xmlns:v="https://vecta.io/nano"><mask id="A" fill="#fff"><path d="M12 4H88V130H12V4Z"/></mask><path d="M12 4H88V130H12V4Z" fill="url(#B)" fill-opacity=".2"/><path d="M12 4v-.659h-.659V4H12zm76 0h.659v-.659H88V4zm-76 .659h76V3.341H12v1.317zM87.342 4v126h1.317V4h-1.317zM12.659 130V4h-1.317v126h1.317z" fill="url(#C)" mask="url(#A)"/><path fill="url(#D)" d="M12 4h76v3H12z"/><path d="M100 101l-23.951 29H80l20-25.049V101z" fill="url(#E)"/><path d="M99 109.178L82 130h2.822L99 112v-2.822z" fill="url(#F)"/><g fill-rule="evenodd"><path d="M91 107V10h.5v97l-18 23H73l18-23z" fill="url(#G)"/><path opacity=".5" d="M93.835 19.068l-8.952-8.952.233-.233 9.048 9.048V105h-.329V19.068z" fill="url(#H)"/></g><path opacity=".3" d="M100 4h-9v5h4v13h5V4z" fill="url(#I)"/><path d="M0 101l23.951 29H20L0 104.951V101z" fill="url(#J)"/><path d="M1 109.178L18 130h-2.822L1 112v-2.822z" fill="url(#K)"/><g fill-rule="evenodd"><path d="M9 107V10h-.5v97l18 23h.5L9 107z" fill="url(#L)"/><path opacity=".5" d="M6.165 19.068l8.952-8.952-.233-.233-9.048 9.048V105h.329V19.068z" fill="url(#M)"/></g><path opacity=".3" d="M0 4H9V9H5V22H0V4Z" fill="url(#N)"/><path d="M50 0l3 6-3 4-3-4 3-6z" fill="#ab750f"/><path d="M47 6l3-6v10l-3-4z" fill="#ffc502"/><path d="M49.962 1.279L53 6l-3-6-3 6 2.962-4.721z" fill="#fff" fill-opacity=".3"/><g clip-path="url(#S)"><path fill-rule="evenodd" d="M48.816 100h-3.92l-.896.896v3.808l1.344-1.344v-2.016h2.128L48.816 100zm1.568 11.2h3.92l.896-.896v-3.808l-1.344 1.344v2.016h-2.128l-1.344 1.344zm4.816-8.736V100h-2.352L44 108.736v2.464h2.352l8.848-8.736z" fill="url(#O)"/></g><path d="M45.828 116v-2.688h.411l1.175 1.962h-.215l1.156-1.962h.411L48.77 116h-.472l-.004-1.947h.1l-.983 1.64h-.223l-.998-1.64h.115V116h-.476zm3.667 0v-2.688h.499V116h-.499zm1.226 0v-2.688h1.175a1.66 1.66 0 0 1 .768.169c.22.113.392.269.515.468s.184.436.184.707-.062.504-.184.707-.294.355-.515.468a1.66 1.66 0 0 1-.768.169h-1.175zm.499-.422h.653c.202 0 .376-.039.522-.116a.81.81 0 0 0 .342-.322c.082-.138.123-.3.123-.484a.92.92 0 0 0-.123-.484.81.81 0 0 0-.342-.322c-.146-.077-.32-.116-.522-.116h-.653v1.844z" fill="url(#P)"/><g clip-path="url(#T)"><rect x="36.4" y="70.668" width="27.2" height="27.2" rx="13.6" transform="rotate(270 36.4 70.668)" fill="url(#Q)"/><g fill-rule="evenodd"><path d="M49.926 72.126c8.395 0 15.2-6.805 15.2-15.2s-6.805-15.2-15.2-15.2-15.2 6.805-15.2 15.2 6.805 15.2 15.2 15.2zm-16-15.2c0 8.837 7.163 16 16 16s16-7.163 16-16-7.163-16-16-16-16 7.163-16 16z" fill="url(#R)"/><path d="M50 49.8a2.16 2.16 0 0 1 2.16 2.16v2.88h2.88a2.16 2.16 0 0 1 0 4.32h-2.88v2.88a2.16 2.16 0 1 1-4.32 0v-2.88h-2.88a2.16 2.16 0 0 1 0-4.32h2.88v-2.88A2.16 2.16 0 0 1 50 49.8z" fill="#f5f1ee"/></g></g><defs><linearGradient id="B" x1="50" y1="4" x2="50" y2="130" href="#U"><stop stop-color="#ab750f"/><stop offset="1" stop-color="#997601" stop-opacity="0"/></linearGradient><linearGradient id="C" x1="50" y1="4" x2="50" y2="142.866" href="#U"><stop stop-color="#d1a14a"/><stop offset="1" stop-color="#d1a14a" stop-opacity="0"/></linearGradient><linearGradient id="D" x1="8.447" y1="5.5" x2="89.39" y2="5.5" href="#U"><stop stop-color="#ab750f"/><stop offset=".516" stop-color="#d8a956"/><stop offset="1" stop-color="#ab750f"/></linearGradient><linearGradient id="E" x1="74.929" y1="115.5" x2="100.438" y2="115.5" href="#U"><stop stop-color="#ab750f"/><stop offset=".516" stop-color="#d8a956"/><stop offset="1" stop-color="#ab750f"/></linearGradient><linearGradient id="F" x1="81.205" y1="119.589" x2="99.311" y2="119.589" href="#U"><stop stop-color="#ab750f"/><stop offset=".516" stop-color="#d8a956"/><stop offset="1" stop-color="#ab750f"/></linearGradient><linearGradient id="G" x1="72.135" y1="70.001" x2="91.838" y2="70.001" href="#U"><stop stop-color="#ab750f"/><stop offset=".516" stop-color="#d8a956"/><stop offset="1" stop-color="#ab750f"/></linearGradient><linearGradient id="H" x1="89.524" y1="9.884" x2="89.524" y2="105" href="#U"><stop stop-color="#ab750f"/><stop offset=".516" stop-color="#d8a956"/><stop offset="1" stop-color="#ab750f"/></linearGradient><linearGradient id="I" x1="95.5" y1="4" x2="95.5" y2="22" href="#U"><stop stop-color="#ab750f"/><stop offset=".516" stop-color="#d8a956"/><stop offset="1" stop-color="#ab750f"/></linearGradient><linearGradient id="J" x1="25.071" y1="115.5" x2="-.438" y2="115.5" href="#U"><stop stop-color="#ab750f"/><stop offset=".516" stop-color="#d8a956"/><stop offset="1" stop-color="#ab750f"/></linearGradient><linearGradient id="K" x1="18.795" y1="119.589" x2=".689" y2="119.589" href="#U"><stop stop-color="#ab750f"/><stop offset=".516" stop-color="#d8a956"/><stop offset="1" stop-color="#ab750f"/></linearGradient><linearGradient id="L" x1="27.865" y1="70.001" x2="8.162" y2="70.001" href="#U"><stop stop-color="#ab750f"/><stop offset=".516" stop-color="#d8a956"/><stop offset="1" stop-color="#ab750f"/></linearGradient><linearGradient id="M" x1="10.476" y1="9.884" x2="10.476" y2="105" href="#U"><stop stop-color="#ab750f"/><stop offset=".516" stop-color="#d8a956"/><stop offset="1" stop-color="#ab750f"/></linearGradient><linearGradient id="N" x1="4.5" y1="4" x2="4.5" y2="22" href="#U"><stop stop-color="#ab750f"/><stop offset=".516" stop-color="#d8a956"/><stop offset="1" stop-color="#ab750f"/></linearGradient><linearGradient id="O" x1="43.477" y1="105.6" x2="55.405" y2="105.6" href="#U"><stop stop-color="#ab750f"/><stop offset=".516" stop-color="#d8a956"/><stop offset="1" stop-color="#ab750f"/></linearGradient><linearGradient id="P" x1="44.58" y1="114.5" x2="54.165" y2="114.5" href="#U"><stop stop-color="#ab750f"/><stop offset=".516" stop-color="#d8a956"/><stop offset="1" stop-color="#ab750f"/></linearGradient><linearGradient id="Q" x1="69.564" y1="81.219" x2="35.491" y2="81.566" href="#U"><stop stop-color="#ab750f"/><stop offset=".238" stop-color="#d8a956"/><stop offset="1" stop-color="#ab750f"/></linearGradient><linearGradient id="R" x1="49.926" y1="74.422" x2="49.926" y2="40.341" href="#U"><stop stop-color="#ab750f"/><stop offset=".516" stop-color="#d8a956"/><stop offset="1" stop-color="#ab750f"/></linearGradient><clipPath id="S"><path fill="#fff" transform="translate(44 100)" d="M0 0h11.2v11.2H0z"/></clipPath><clipPath id="T"><path fill="#fff" transform="translate(34 41)" d="M0 0h32v32H0z"/></clipPath><linearGradient id="U" gradientUnits="userSpaceOnUse"/></defs></svg>
